packages/bezier-icons/icons/hand-wave.svg

<svg width="24" height="24" viewBox="0 0 24 24" fill="none" xmlns="http://www.w3.org/2000/svg">
<path d="M18.0002 3.00012V1.00012C20.7572 1.00012 23.0002 3.23912 23.0002 5.99212H21.0002C21.0002 4.34312 19.6542 3.00012 18.0002 3.00012Z" fill="#313234"/>
<path fill-rule="evenodd" clip-rule="evenodd" d="M15.7213 4.74823C15.2493 5.22023 14.9913 5.84823 14.9923 6.51523V7.53223L9.92528 2.46523C8.95028 1.49023 7.36528 1.49023 6.39028 2.46523C6.16728 2.68723 6.00128 2.94423 5.88028 3.21723C5.07128 3.03423 4.18928 3.25123 3.56128 3.88023C3.08828 4.35123 2.82828 4.98023 2.83028 5.65023C2.83028 5.83823 2.85628 6.02123 2.89628 6.20023C2.62528 6.32123 2.36928 6.48623 2.14728 6.70823C1.17228 7.68323 1.17428 9.26923 2.15028 10.2472L2.53028 10.6272C2.39728 10.7162 2.27028 10.8182 2.15228 10.9352C1.67828 11.4102 1.41528 12.0402 1.41528 12.7102C1.41428 13.3812 1.67528 14.0122 2.14928 14.4872L7.22228 19.5612C7.93228 20.2712 8.76128 20.8332 9.68628 21.2292C10.5843 21.6142 11.5253 21.8022 12.4563 21.8022C14.2713 21.8022 16.0483 21.0912 17.3933 19.7452L17.9453 19.1942C19.2663 17.8732 19.9943 16.1172 19.9953 14.2492L20.0003 6.47523C20.0003 5.81623 19.7453 5.19823 19.2793 4.73223C18.3643 3.81623 16.6843 3.78423 15.7213 4.74823ZM17.9953 14.2472C17.9943 15.5822 17.4743 16.8372 16.5313 17.7802L15.9793 18.3312C14.5253 19.7852 12.3653 20.2012 10.4743 19.3922C9.78428 19.0962 9.16528 18.6772 8.63728 18.1472L3.56428 13.0742C3.46828 12.9772 3.41428 12.8492 3.41528 12.7132C3.41528 12.5762 3.46928 12.4482 3.56628 12.3502C3.75228 12.1642 4.05528 12.1632 4.24228 12.3502L6.74028 14.8372L7.45028 15.5472L8.86428 14.1332L3.56528 8.83323C3.36828 8.63623 3.36628 8.31723 3.56128 8.12223C3.68728 7.99623 3.83528 7.97623 3.91328 7.97623C4.04828 7.97723 4.17628 8.03023 4.27228 8.12623L9.57228 13.4262L10.9863 12.0122L4.97928 6.00523C4.84928 5.87523 4.83028 5.72523 4.83028 5.64623C4.83028 5.56923 4.84928 5.42123 4.97528 5.29423C5.17028 5.10023 5.48928 5.10123 5.68628 5.29723L6.38828 5.99823C6.38828 5.99923 6.38928 6.00023 6.39028 6.00123L11.6933 11.3042L13.1073 9.89023L7.80328 4.58523C7.60928 4.39023 7.60928 4.07423 7.80328 3.88023C7.99828 3.68523 8.31628 3.68423 8.51128 3.87923L15.1183 10.4872C15.4353 10.8022 15.9053 10.8952 16.3173 10.7222C16.7273 10.5512 16.9933 10.1522 16.9933 9.70723L16.9923 6.51223C16.9923 6.37923 17.0433 6.25523 17.1363 6.16123C17.3233 5.97423 17.7603 6.04323 17.8653 6.14623C17.9153 6.19723 18.0003 6.30723 18.0003 6.47323L17.9953 14.2472Z" fill="#313234"/>
<path d="M3.00018 17.004H1.00018C1.00018 19.757 3.23918 21.996 5.99218 21.996V19.996C4.34218 19.996 3.00018 18.653 3.00018 17.004Z" fill="#313234"/>
</svg>

<svg xmlns="http://www.w3.org/2000/svg" width="24" height="24" fill="none" viewBox="0 0 24 24"><path fill="#313234" d="M18 3V1c2.757 0 5 2.24 5 4.992h-2A3 3 0 0 0 18 3"/><path fill="#313234" fill-rule="evenodd" d="M15.721 4.748c-.472.472-.73 1.1-.729 1.767v1.017L9.925 2.465a2.5 2.5 0 0 0-3.535 0 2.5 2.5 0 0 0-.51.752A2.49 2.49 0 0 0 2.83 5.65c0 .188.026.371.066.55a2.5 2.5 0 0 0-.749.508 2.506 2.506 0 0 0 .003 3.54l.38.38q-.2.132-.378.307a2.5 2.5 0 0 0-.737 1.775c0 .671.26 1.302.734 1.777l5.073 5.074a7.8 7.8 0 0 0 2.464 1.668 6.966 6.966 0 0 0 7.707-1.484l.552-.55a6.95 6.95 0 0 0 2.05-4.946L20 6.475c0-.659-.255-1.277-.72-1.743-.916-.916-2.596-.948-3.559.016m2.274 9.5a4.97 4.97 0 0 1-1.464 3.532l-.552.551a4.98 4.98 0 0 1-5.505 1.061 5.8 5.8 0 0 1-1.837-1.245l-5.073-5.073a.512.512 0 0 1 .002-.724.48.48 0 0 1 .676 0l2.498 2.487.71.71 1.414-1.414-5.299-5.3a.503.503 0 0 1-.004-.71.497.497 0 0 1 .711.003l5.3 5.3 1.414-1.414L4.98 6.005a.504.504 0 0 1-.004-.71.505.505 0 0 1 .711.002l.702.701.002.003 5.303 5.303 1.414-1.414-5.304-5.305a.5.5 0 0 1 .708-.706l6.607 6.608c.317.315.787.408 1.2.235.41-.17.675-.57.675-1.015V6.512c0-.133.05-.257.143-.35.187-.188.624-.119.73-.016.05.051.134.161.134.327z" clip-rule="evenodd"/><path fill="#313234" d="M3 17.004H1a4.997 4.997 0 0 0 4.992 4.992v-2A2.996 2.996 0 0 1 3 17.004"/></svg>
